assets/svg/clock.svg

<?xml version="1.0" encoding="UTF-8"?>
<svg width="1000px" height="1000px" viewBox="0 0 1000 1000" version="1.1" xmlns="http://www.w3.org/2000/svg" xmlns:xlink="http://www.w3.org/1999/xlink">
    <!-- Generator: sketchtool 52.4 (67378) - http://www.bohemiancoding.com/sketch -->
    <title>clock</title>
    <desc>Created with sketchtool.</desc>
    <g id="新版图标" stroke="none" stroke-width="1" fill="none" fill-rule="evenodd">
        <g id="clock" fill="#323233">
            <g id="圆角-进行中-面">
                <path d="M500,944.444444 C254.540111,944.444444 55.5555556,745.459889 55.5555556,500 C55.5555556,254.540111 254.540111,55.5555556 500,55.5555556 C745.459889,55.5555556 944.444444,254.540111 944.444444,500 C944.444444,745.459889 745.459889,944.444444 500,944.444444 Z M500,527.777778 L500,305.555556 C500,290.214313 487.563465,277.777778 472.222222,277.777778 C456.880979,277.777778 444.444444,290.214313 444.444444,305.555556 L444.444444,555.555556 C444.444444,570.896799 456.880979,583.333333 472.222222,583.333333 L722.222222,583.333333 C737.563465,583.333333 750,570.896799 750,555.555556 C750,540.214313 737.563465,527.777778 722.222222,527.777778 L500,527.777778 Z" id="Combined-Shape"></path>
            </g>
        </g>
    </g>
</svg>

<svg width="1000" height="1000" xmlns="http://www.w3.org/2000/svg"><path d="M500 944.444C254.54 944.444 55.556 745.46 55.556 500S254.54 55.556 500 55.556 944.444 254.54 944.444 500 745.46 944.444 500 944.444zm0-416.666V305.556c0-15.342-12.437-27.778-27.778-27.778s-27.778 12.436-27.778 27.778v250c0 15.34 12.437 27.777 27.778 27.777h250c15.341 0 27.778-12.436 27.778-27.777 0-15.342-12.437-27.778-27.778-27.778H500z" fill="#323233" fill-rule="evenodd"/></svg>
